X:80
T:Soldiers Joy (tune)
C:Traditional
S:https://JamBuddy.live
M:4/4
L:1/8
R:Reel
K:D
Q:125
FG |: "D"AFDF AFDF | "D"A2 d2 d2 FG | "D"AFDF AFDF | "A"G2 E2 E2 FG |!
|"D"AFDF AFDF | "D"A2 d2 d2 de | "D"fafd egec |1 "D"d2 dd d2 FG :||2 "D"d2 dd d2 de |]
|:"D"fefg abaf | "G"edcd "A"efge | "D"fefg abaf | "A"edcB A2de |!
|"D"fefg abaf | "G"edcd "A"efge | "D"fafd "A"egec |1 "D"d2 dd d2 de :||2 "D" d2 dd d4 |]
|"D"AAAA A2A2 | "D"Ad d2 d2 z2| "D"AAAA A2 A2 | "A"A2 E2 E2 z2 |!

